static/Icons/24-support.svg

<svg fill="none" height="24" viewBox="0 0 24 24" width="24" xmlns="http://www.w3.org/2000/svg"><g fill="#292d32"><path d="m18 18.86h-.76c-.8 0-1.56.31-2.12.87l-1.71 1.69c-.78.77-2.05.77-2.83 0l-1.71-1.69c-.56-.56-1.33-.87-2.12-.87h-.75c-1.66 0-3-1.33-3-2.97v-10.91002c0-1.64 1.34-2.96997 3-2.96997h12c1.66 0 3 1.32997 3 2.96997v10.91002c0 1.63-1.34 2.97-3 2.97z" opacity=".4"/><path d="m10.3802 14.5099h-2.67997c-.44 0-.85-.21-1.11-.57-.25-.34-.31001-.7599-.19001-1.1599.35-1.07 1.21-1.6501 1.97-2.1701.8-.54 1.25-.87994 1.25-1.45994 0-.52-.42-.94-.94-.94s-.93999.42-.93999.94c0 .41-.34.75-.75.75s-.75-.34-.75-.75c0-1.34 1.08999-2.44 2.43999-2.44 1.34998 0 2.43998 1.09 2.43998 2.44 0 1.41004-1.06 2.12994-1.90996 2.70994-.53.36-1.03002.7-1.28002 1.15h2.43998c.41 0 .75.34.75.75s-.33.75-.74.75z"/><path d="m16.0408 14.5099c-.41 0-.75-.34-.75-.75v-.69h-1.9599s0 0-.01 0c-.49 0-.94-.2599-1.19-.6799-.25-.43-.25-.9601 0-1.3801.68-1.16995 1.47-2.49999 2.19-3.65999.32-.51.93-.73995 1.5-.57995.57.17.97.68997.96 1.28997v3.52007h.22c.41 0 .75.34.75.75s-.34.75-.75.75h-.2101v.69c0 .41-.33.7399-.75.7399zm-.75-5.86995c-.59.96-1.2 1.98995-1.75 2.92995h1.75z"/></g></svg>

<svg width="24" height="24" viewBox="0 0 24 24" fill="none" xmlns="http://www.w3.org/2000/svg">
<path opacity="0.4" d="M18 18.86H17.24C16.44 18.86 15.68 19.17 15.12 19.73L13.41 21.42C12.63 22.19 11.36 22.19 10.58 21.42L8.87 19.73C8.31 19.17 7.54 18.86 6.75 18.86H6C4.34 18.86 3 17.53 3 15.89V4.97998C3 3.33998 4.34 2.01001 6 2.01001H18C19.66 2.01001 21 3.33998 21 4.97998V15.89C21 17.52 19.66 18.86 18 18.86Z" fill="#292D32"/>
<path d="M10.3802 14.5099H7.70023C7.26023 14.5099 6.85023 14.2999 6.59023 13.9399C6.34023 13.5999 6.28022 13.18 6.40022 12.78C6.75022 11.71 7.61022 11.1299 8.37022 10.6099C9.17022 10.0699 9.62022 9.72996 9.62022 9.14996C9.62022 8.62996 9.20022 8.20996 8.68022 8.20996C8.16022 8.20996 7.74023 8.62996 7.74023 9.14996C7.74023 9.55996 7.40023 9.89996 6.99023 9.89996C6.58023 9.89996 6.24023 9.55996 6.24023 9.14996C6.24023 7.80996 7.33022 6.70996 8.68022 6.70996C10.0302 6.70996 11.1202 7.79996 11.1202 9.14996C11.1202 10.56 10.0602 11.2799 9.21024 11.8599C8.68024 12.2199 8.18022 12.5599 7.93022 13.0099H10.3702C10.7802 13.0099 11.1202 13.3499 11.1202 13.7599C11.1202 14.1699 10.7902 14.5099 10.3802 14.5099Z" fill="#292D32"/>
<path d="M16.0408 14.5099C15.6308 14.5099 15.2908 14.1699 15.2908 13.7599V13.0699H13.3309C13.3309 13.0699 13.3309 13.0699 13.3209 13.0699C12.8309 13.0699 12.3809 12.81 12.1309 12.39C11.8809 11.96 11.8809 11.4299 12.1309 11.0099C12.8109 9.83995 13.6009 8.50991 14.3209 7.34991C14.6409 6.83991 15.2509 6.60996 15.8209 6.76996C16.3909 6.93996 16.7909 7.45993 16.7809 8.05993V11.58H17.0009C17.4109 11.58 17.7509 11.92 17.7509 12.33C17.7509 12.74 17.4109 13.08 17.0009 13.08H16.7908V13.77C16.7908 14.18 16.4608 14.5099 16.0408 14.5099ZM15.2908 8.63995C14.7008 9.59995 14.0908 10.6299 13.5408 11.5699H15.2908V8.63995Z" fill="#292D32"/>
</svg>
